X: 1
T: Gan Ainm
M: 12/8
L: 1/8
R: slide
K: Dmaj
|: B | A2 F DFA B2 A d2 e | f2 b afb afd e2 d |
A2 F DFA B2 A d2 e | f2 b afd edc d2 :|
|: f | a3 afd ede f3 | e3 edf edf efg |
a2 a afd ede f2 e | dBA F2 E DFA d2 :|
